X: 1
T: If I Get a Boanie Lass
O: Shetland
R: reel
S: Ed Pearlman, Fiddle Hell 2016
Z: 2016 John Chambers <jc:trillian.mit.edu>
M: C|
L: 1/8
K: G	% or Dmix or Amix
"A"|:\
"G"dcBA GAB2 | "G"dBGB "C"gage |\
"G"dcBA GAB2 | "A"efed ^c2A2 :|
"B"|:\
"D"defd "G"gfec | "D"defd "G"g2B2 |\
"D"defd "Em"gfe2 | "A"efed ^c2A2 :|
